packages/ffe-icons/icons/open/400/sm/h_plus_mobiledata.svg

<svg xmlns="http://www.w3.org/2000/svg" height="20" viewBox="0 -960 960 960" width="20"><path d="M264-444v120q0 15-10.29 25.5t-25.5 10.5q-15.21 0-25.71-10.35T192-324v-312q0-15.3 10.29-25.65Q212.58-672 227.79-672t25.71 10.35Q264-651.3 264-636v120h240v-120q0-15 10.29-25.5t25.5-10.5q15.21 0 25.71 10.35T576-636v312q0 15.3-10.29 25.65Q555.42-288 540.21-288t-25.71-10.35Q504-308.7 504-324v-120H264Zm444 0h-48q-15.3 0-25.65-10.29Q624-464.58 624-479.79t10.35-25.71Q644.7-516 660-516h48v-48q0-15.3 10.29-25.65Q728.58-600 743.79-600t25.71 10.35Q780-579.3 780-564v48h48q15.3 0 25.65 10.29Q864-495.42 864-480.21t-10.35 25.71Q843.3-444 828-444h-48v48q0 15.3-10.29 25.65Q759.42-360 744.21-360t-25.71-10.35Q708-380.7 708-396v-48Z"/></svg>

<svg xmlns="http://www.w3.org/2000/svg" height="20" viewBox="0 -960 960 960" width="20"><path d="M264-444v120q0 15-10.289 25.5-10.29 10.5-25.5 10.5Q213-288 202.5-298.35 192-308.7 192-324v-312q0-15.3 10.289-25.65 10.29-10.35 25.5-10.35Q243-672 253.5-661.65 264-651.3 264-636v120h240v-120q0-15 10.289-25.5 10.29-10.5 25.5-10.5Q555-672 565.5-661.65 576-651.3 576-636v312q0 15.3-10.289 25.65-10.29 10.35-25.5 10.35Q525-288 514.5-298.35 504-308.7 504-324v-120H264Zm444 0h-48q-15.3 0-25.65-10.289-10.35-10.29-10.35-25.5Q624-495 634.35-505.5 644.7-516 660-516h48v-48q0-15.3 10.289-25.65 10.29-10.35 25.5-10.35Q759-600 769.5-589.65 780-579.3 780-564v48h48q15.3 0 25.65 10.289 10.35 10.29 10.35 25.5Q864-465 853.65-454.5 843.3-444 828-444h-48v48q0 15.3-10.289 25.65-10.29 10.35-25.5 10.35Q729-360 718.5-370.35 708-380.7 708-396v-48Z"/></svg>
